src/img/logo-img.svg

<svg width="123" height="92" viewBox="0 0 123 92" fill="none" xmlns="http://www.w3.org/2000/svg">
<path fill-rule="evenodd" clip-rule="evenodd" d="M0 78.8197V5C0 2.23858 2.23857 0 5 0H41.9098C45.6267 0 48.0442 3.91156 46.382 7.23607L9.47213 81.0557C7.11258 85.7748 0 84.0958 0 78.8197ZM123 78.8197V5C123 2.23858 120.761 0 118 0H81.0902C77.3733 0 74.9558 3.91156 76.618 7.23607L113.528 81.0557C115.887 85.7748 123 84.0958 123 78.8197ZM64 87V13.1803C64 7.90422 71.1126 6.22515 73.4721 10.9443L110.382 84.7639C112.044 88.0884 109.627 92 105.91 92H69C66.2386 92 64 89.7614 64 87ZM59 13.1803V87C59 89.7614 56.7614 92 54 92H17.0902C13.3733 92 10.9558 88.0884 12.618 84.7639L49.5279 10.9443C51.8874 6.22515 59 7.90422 59 13.1803Z" fill="url(#paint0_linear)"/>
<defs>
<linearGradient id="paint0_linear" x1="62" y1="92" x2="62" y2="-1.09673e-05" gradientUnits="userSpaceOnUse">
<stop offset="0.479167" stop-color="#275553"/>
<stop offset="1" stop-color="#F47648"/>
</linearGradient>
</defs>
</svg>

<svg width="123" height="92" fill="none" xmlns="http://www.w3.org/2000/svg">
  <path fill-rule="evenodd" clip-rule="evenodd" d="M0 78.82V5a5 5 0 015-5h36.91c3.717 0 6.134 3.912 4.472 7.236l-36.91 73.82C7.112 85.775 0 84.096 0 78.82zm123 0V5a5 5 0 00-5-5H81.09c-3.717 0-6.134 3.912-4.472 7.236l36.91 73.82c2.359 4.719 9.472 3.04 9.472-2.236zM64 87V13.18c0-5.276 7.113-6.955 9.472-2.236l36.91 73.82c1.662 3.324-.755 7.236-4.472 7.236H69a5 5 0 01-5-5zm-5-73.82V87a5 5 0 01-5 5H17.09c-3.717 0-6.134-3.912-4.472-7.236l36.91-73.82C51.888 6.225 59 7.904 59 13.18z" fill="url(#paint0_linear)"/>
  <defs>
    <linearGradient id="paint0_linear" x1="62" y1="92" x2="62" y2="0" gradientUnits="userSpaceOnUse">
      <stop offset=".479" stop-color="#275553"/>
      <stop offset="1" stop-color="#F47648"/>
    </linearGradient>
  </defs>
</svg>
